remix/Map/navigation-line.svg

<svg viewBox="0 0 24 24" fill="currentColor" xmlns="http://www.w3.org/2000/svg"><path d="M4.96488 5.09625L8.5107 17.5066L11.5514 11.4253L17.188 9.17062L4.96488 5.09625ZM2.89945 2.29958L21.7052 8.56818C21.9672 8.6555 22.1088 8.93866 22.0215 9.20063C21.975 9.34016 21.8694 9.45214 21.7328 9.50676L13.0002 12.9998L8.57501 21.8501C8.45151 22.0971 8.15118 22.1972 7.90419 22.0737C7.77883 22.011 7.68553 21.8986 7.64703 21.7639L2.26058 2.91129C2.18472 2.64577 2.33846 2.36903 2.60398 2.29316C2.70087 2.26548 2.80386 2.26772 2.89945 2.29958Z"/></svg>

<svg viewBox="0 0 24 24" xmlns="http://www.w3.org/2000/svg"><path fill="none" d="M0 0h24v24H0Z"/><path d="M4.965 5.096l3.54 12.41 3.04-6.08 5.63-2.26 -12.23-4.08Zm-2.07-2.8l18.8 6.26v0c.26.08.4.36.31.63 -.05.14-.16.25-.29.3l-8.74 3.49 -4.43 8.85v0c-.13.24-.43.34-.68.22 -.13-.07-.22-.18-.26-.31L2.21 2.87v0c-.08-.27.07-.55.34-.62 .09-.03.2-.03.29 0Z"/></svg>
